; LightBurn 1.3.01
; GRBL device profile, absolute coords
; Bounds: X8 Y4.6 to X83.13 Y24.9
G00 G17 G40 G21 G54
G90
M4
; Cut @ 30 mm/sec, 60% power
M8
G0 X8Y8
; Layer border
G1 Y23S600F1800
G1 X23
G1 Y8
G1 X8
G0 X46.762Y14.891
G1 X50.762Y21.82
G1 X58.762
G1 X62.762Y14.891
G1 X58.762Y7.963
G1 X50.762
G1 X46.762Y14.891
; Image @ 70 mm/sec, 45% power
M8
G0 X79.626Y4.599
; Layer C00
G91
G1 X3.5F4200S0
G1 Y0.1S0
G1 X-3.5S0
G1 Y0.1S0
G1 X3.5S0
G1 Y0.1S0
G1 X-3.5S0
G1 Y0.1S0
G1 X3.5S0
G1 Y0.1S0
G1 X-3.5S0
G1 Y0.1S0
G1 X3.5S0
G1 Y0.1S0
G1 X-3.5S0
G1 Y0.1S0
G1 X3.5S0
G1 Y0.1S0
G1 X-3.5S0
G1 Y0.1S0
G1 X3.5S0
G1 Y0.1S0
G1 X-3.5S0
G1 Y0.1S0
G1 X3.5S0
G1 Y0.1S0
G1 X-3.5S0
G1 Y0.1S0
G1 X3.5S0
G1 Y0.1S0
G1 X-9.95S0
G1 X-0.1S450
G1 X-0.7S0
G1 X-0.1S450
G1 X-1.75S0
G1 X-1.6Y0.1S0
G1 X1.75S0
G1 X0.3S450
G1 X0.1S0
G1 X0.3S450
G1 X0.8S0
G1 X0.3S450
G1 X0.1S0
G1 X0.3S450
G1 X0.1S0
G1 X0.3S450
G1 X0.1S0
G1 X0.3S450
G1 X9.45S0
G1 Y0.1S0
G1 X-9.45S0
G1 X-1.3S450
G1 X-0.1S0
G1 X-0.2S450
G1 X-0.1S0
G1 X-0.4S450
G1 X-0.1S0
G1 X-1.1S450
G1 X-1.75S0
G1 X-0.3Y0.1S0
G1 X1.75S0
G1 X0.5S450
G1 X0.1S0
G1 X0.2S450
G1 X0.1S0
G1 X0.3S450
G1 X0.1S0
G1 X0.8S450
G1 X0.3S0
G1 X0.1S450
G1 X0.3S0
G1 X0.1S450
G1 X0.2S0
G1 X0.1S450
G1 X0.2S0
G1 X2.3S450
G1 X0.2S0
G1 X0.3S450
G1 X6.85S0
G1 Y0.1S0
G1 X-6.75S0
G1 X-0.9S450
G1 X-1S0
G1 X-1.1S450
G1 X-1.5S0
G1 X-0.2S450
G1 X-0.1S0
G1 X-0.2S450
G1 X-0.2S0
G1 X-0.1S450
G1 X-0.2S0
G1 X-0.2S450
G1 X-0.1S0
G1 X-0.1S450
G1 X-0.2S0
G1 X-1.5S450
G1 X-0.9S0
G1 X-0.4S450
G1 X-1.75S0
G1 X-0.1Y0.1S0
G1 X1.75S0
G1 X3S450
G1 X1.4S0
G1 X0.1S450
G1 X1.5S0
G1 X0.1S450
G1 X2.4S0
G1 X0.2S450
G1 X0.2S0
G1 X0.2S450
G1 X6.65S0
G1 Y0.1S0
G1 X-6.55S0
G1 X-0.2S450
G1 X-0.4S0
G1 X-0.1S450
G1 X-2.3S0
G1 X-0.2S450
G1 X-1.4S0
G1 X-0.2S450
G1 X-1.3S0
G1 X-0.3S450
G1 X-1.8S0
G1 X-0.6S450
G1 X-0.3S0
G1 X-0.2S450
G1 X-1.75S0
G1 X-0.1Y0.1S0
G1 X1.75S0
G1 X0.2S450
G1 X0.5S0
G1 X0.1S450
G1 X2.3S0
G1 X0.1S450
G1 X1.4S0
G1 X0.2S450
G1 X1.5S0
G1 X0.1S450
G1 X2.3S0
G1 X0.1S450
G1 X0.4S0
G1 X0.2S450
G1 X6.55S0
G1 Y0.1S0
G1 X-6.45S0
G1 X-0.2S450
G1 X-0.5S0
G1 X-0.1S450
G1 X-2.2S0
G1 X-0.2S450
G1 X-1.5S0
G1 X-0.2S450
G1 X-1.4S0
G1 X-0.2S450
G1 X-2.2S0
G1 X-0.1S450
G1 X-0.5S0
G1 X-0.2S450
G1 X-1.75S0
G1 X-0.1Y0.1S0
G1 X1.75S0
G1 X0.2S450
G1 X2.8S0
G1 X0.2S450
G1 X1.5S0
G1 X0.2S450
G1 X1.6S0
G1 X0.2S450
G1 X2.1S0
G1 X0.1S450
G1 X0.6S0
G1 X0.2S450
G1 X6.35S0
G1 Y0.1S0
G1 X-6.35S0
G1 X-0.2S450
G1 X-0.6S0
G1 X-0.1S450
G1 X-2.1S0
G1 X-0.2S450
G1 X-1.6S0
G1 X-0.2S450
G1 X-1.5S0
G1 X-0.2S450
G1 X-2.9S0
G1 X-0.1S450
G1 X-1.75S0
G1 X-0.1Y0.1S0
G1 X1.75S0
G1 X0.2S450
G1 X2.8S0
G1 X0.2S450
G1 X1.6S0
G1 X0.2S450
G1 X1.7S0
G1 X0.2S450
G1 X2S0
G1 X0.1S450
G1 X0.7S0
G1 X0.2S450
G1 X6.25S0
G1 Y0.1S0
G1 X-6.25S0
G1 X-0.2S450
G1 X-0.7S0
G1 X-0.1S450
G1 X-2S0
G1 X-0.1S450
G1 X-1.8S0
G1 X-0.2S450
G1 X-1.6S0
G1 X-0.2S450
G1 X-2.9S0
G1 X-0.1S450
G1 X-1.75S0
G1 X-0.1Y0.1S0
G1 X1.75S0
G1 X0.2S450
G1 X2.8S0
G1 X0.2S450
G1 X1.7S0
G1 X0.2S450
G1 X1.8S0
G1 X0.2S450
G1 X1.9S0
G1 X0.1S450
G1 X0.8S0
G1 X0.2S450
G1 X6.15S0
G1 Y0.1S0
G1 X-6.15S0
G1 X-0.2S450
G1 X-2.7S0
G1 X-0.2S450
G1 X-1.9S0
G1 X-0.2S450
G1 X-1.7S0
G1 X-0.2S450
G1 X-2.9S0
G1 X-0.1S450
G1 X-1.75S0
G1 X-0.1Y0.1S0
G1 X1.75S0
G1 X0.2S450
G1 X2.8S0
G1 X0.2S450
G1 X1.8S0
G1 X0.2S450
G1 X1.9S0
G1 X0.2S450
G1 X2.8S0
G1 X0.1S450
G1 X6.15S0
G1 Y0.1S0
G1 X-6.05S0
G1 X-0.2S450
G1 X-2.7S0
G1 X-0.2S450
G1 X-2S0
G1 X-0.2S450
G1 X-1.9S0
G1 X-0.1S450
G1 X-2.8S0
G1 X-0.2S450
G1 X-1.75S0
G1 Y0.1S0
G1 X1.75S0
G1 X0.1S450
G1 X2.8S0
G1 X0.2S450
G1 X1.9S0
G1 X0.2S450
G1 X2.1S0
G1 X0.1S450
G1 X2.7S0
G1 X0.2S450
G1 X6.05S0
G1 Y0.1S0
G1 X-6.05S0
G1 X-0.1S450
G1 X-2.7S0
G1 X-0.2S450
G1 X-2.1S0
G1 X-0.1S450
G1 X-2.1S0
G1 X-0.1S450
G1 X-1.8S0
G1 X-0.2S450
G1 X-0.8S0
G1 X-0.2S450
G1 X-1.75S0
G1 Y0.1S0
G1 X1.75S0
G1 X0.2S450
G1 X0.8S0
G1 X0.2S450
G1 X1.7S0
G1 X0.2S450
G1 X2.1S0
G1 X0.1S450
G1 X2.2S0
G1 X0.1S450
G1 X2.7S0
G1 X0.2S450
G1 X5.95S0
G1 Y0.1S0
G1 X-5.95S0
G1 X-0.1S450
G1 X-2.7S0
G1 X-0.2S450
G1 X-2.2S0
G1 X-0.1S450
G1 X-2.2S0
G1 X-0.1S450
G1 X-1.8S0
G1 X-0.1S450
G1 X-0.9S0
G1 X-0.1S450
G1 X-1.75S0
G1 X-0.1Y0.1S0
G1 X1.75S0
G1 X0.2S450
G1 X0.9S0
G1 X0.1S450
G1 X1.7S0
G1 X0.2S450
G1 X2.2S0
G1 X0.1S450
G1 X2.3S0
G1 X0.2S450
G1 X2.6S0
G1 X0.1S450
G1 X5.95S0
G1 Y0.1S0
G1 X-5.85S0
G1 X-0.2S450
G1 X-2.6S0
G1 X-0.2S450
G1 X-2.2S0
G1 X-0.2S450
G1 X-2.2S0
G1 X-0.2S450
G1 X-1.7S0
G1 X-0.1S450
G1 X-0.9S0
G1 X-0.2S450
G1 X-1.75S0
G1 Y0.1S0
G1 X1.75S0
G1 X0.2S450
G1 X0.8S0
G1 X0.2S450
G1 X1.6S0
G1 X0.2S450
G1 X2.3S0
G1 X0.2S450
G1 X2.3S0
G1 X0.2S450
G1 X2.5S0
G1 X0.2S450
G1 X5.85S0
G1 Y0.1S0
G1 X-5.85S0
G1 X-0.1S450
G1 X-2.6S0
G1 X-0.2S450
G1 X-2.3S0
G1 X-0.2S450
G1 X-2.3S0
G1 X-0.2S450
G1 X-1.6S0
G1 X-0.2S450
G1 X-0.9S0
G1 X-0.1S450
G1 X-1.75S0
G1 Y0.1S0
G1 X1.75S0
G1 X0.1S450
G1 X0.9S0
G1 X0.1S450
G1 X1.7S0
G1 X0.1S450
G1 X2.4S0
G1 X0.2S450
G1 X2.4S0
G1 X0.1S450
G1 X2.6S0
G1 X0.2S450
G1 X5.75S0
G1 Y0.1S0
G1 X-5.75S0
G1 X-0.2S450
G1 X-0.8S0
G1 X-0.1S450
G1 X-1.6S0
G1 X-0.2S450
G1 X-2.4S0
G1 X-0.2S450
G1 X-2.4S0
G1 X-0.2S450
G1 X-1.6S0
G1 X-0.2S450
G1 X-0.8S0
G1 X-0.2S450
G1 X-1.75S0
G1 Y0.1S0
G1 X1.75S0
G1 X0.2S450
G1 X0.8S0
G1 X0.2S450
G1 X1.6S0
G1 X0.2S450
G1 X2.4S0
G1 X0.2S450
G1 X2.5S0
G1 X0.1S450
G1 X1.6S0
G1 X0.1S450
G1 X0.8S0
G1 X0.2S450
G1 X5.75S0
G1 Y0.1S0
G1 X-5.75S0
G1 X-0.1S450
G1 X-0.8S0
G1 X-0.2S450
G1 X-1.5S0
G1 X-0.2S450
G1 X-2.5S0
G1 X-0.2S450
G1 X-2.5S0
G1 X-0.1S450
G1 X-1.7S0
G1 X-0.1S450
G1 X-0.8S0
G1 X-0.2S450
G1 X-1.75S0
G1 Y0.1S0
G1 X1.75S0
G1 X0.2S450
G1 X0.1S0
G1 X0.1S450
G1 X0.5S0
G1 X0.2S450
G1 X1.6S0
G1 X0.2S450
G1 X2.5S0
G1 X0.2S450
G1 X2.5S0
G1 X0.2S450
G1 X1.6S0
G1 X0.1S450
G1 X0.8S0
G1 X0.2S450
G1 X5.65S0
G1 Y0.1S0
G1 X-5.65S0
G1 X-0.2S450
G1 X-0.7S0
G1 X-0.2S450
G1 X-1.5S0
G1 X-0.2S450
G1 X-2.5S0
G1 X-0.3S450
G1 X-2.5S0
G1 X-0.2S450
G1 X-1.6S0
G1 X-0.2S450
G1 X-0.3S0
G1 X-0.1S450
G1 X-0.1S0
G1 X-0.2S450
G1 X-0.1S0
G1 X-0.1S450
G1 X-1.75S0
G1 Y0.1S0
G1 X1.75S0
G1 X0.1S450
G1 X0.1S0
G1 X0.2S450
G1 X0.1S0
G1 X0.1S450
G1 X0.2S0
G1 X0.2S450
G1 X1.7S0
G1 X0.2S450
G1 X2.5S0
G1 X0.3S450
G1 X2.5S0
G1 X0.2S450
G1 X1.5S0
G1 X0.2S450
G1 X0.3S0
G1 X0.1S450
G1 X0.1S0
G1 X0.1S450
G1 X0.1S0
G1 X0.2S450
G1 X5.65S0
G1 Y0.1S0
G1 X-5.65S0
G1 X-0.4S450
G1 X-0.1S0
G1 X-0.1S450
G1 X-0.2S0
G1 X-0.2S450
G1 X-1.6S0
G1 X-0.1S450
G1 X-2.6S0
G1 X-0.4S450
G1 X-2.5S0
G1 X-0.1S450
G1 X-1.7S0
G1 X-0.2S450
G1 X-0.2S0
G1 X-0.1S450
G1 X-0.2S0
G1 X-0.1S450
G1 X-0.1S0
G1 X-0.1S450
G1 X-1.75S0
G1 Y0.1S0
G1 X1.75S0
G1 X0.1S450
G1 X0.1S0
G1 X0.1S450
G1 X0.1S0
G1 X0.2S450
G1 X0.2S0
G1 X0.3S450
G1 X1.5S0
G1 X0.2S450
G1 X2.5S0
G1 X0.2S450
G1 X0.1S0
G1 X0.1S450
G1 X2.6S0
G1 X0.2S450
G1 X1.6S0
G1 X0.1S450
G1 X0.2S0
G1 X0.6S450
G1 X5.65S0
G1 Y0.1S0
G1 X-5.65S0
G1 X-0.1S450
G1 X-0.1S0
G1 X-0.1S450
G1 X-0.1S0
G1 X-0.2S450
G1 X-0.1S0
G1 X-0.2S450
G1 X-1.6S0
G1 X-0.2S450
G1 X-2.6S0
G1 X-0.1S450
G1 X-0.1S0
G1 X-0.2S450
G1 X-2.5S0
G1 X-0.2S450
G1 X-1.4S0
G1 X-0.2S450
G1 X-0.1S0
G1 X-0.2S450
G1 X-0.1S0
G1 X-0.2S450
G1 X-0.1S0
G1 X-0.1S450
G1 X-0.1S0
G1 X-0.1S450
G1 X-1.75S0
G1 Y0.1S0
G1 X1.75S0
G1 X0.3S450
G1 X0.1S0
G1 X0.2S450
G1 X0.1S0
G1 X0.2S450
G1 X0.2S0
G1 X0.2S450
G1 X1.3S0
G1 X0.2S450
G1 X2.5S0
G1 X0.1S450
G1 X0.2S0
G1 X0.1S450
G1 X2.7S0
G1 X0.1S450
G1 X0.1S0
G1 X0.2S450
G1 X1.2S0
G1 X0.4S450
G1 X0.1S0
G1 X0.1S450
G1 X0.1S0
G1 X0.3S450
G1 X5.65S0
G1 Y0.1S0
G1 X-5.65S0
G1 X-0.5S450
G1 X-0.1S0
G1 X-0.2S450
G1 X-0.1S0
G1 X-0.2S450
G1 X-0.9S0
G1 X-0.3S450
G1 X-0.2S0
G1 X-0.1S450
G1 X-2.6S0
G1 X-0.2S450
G1 X-0.2S0
G1 X-0.2S450
G1 X-2.4S0
G1 X-0.2S450
G1 X-0.1S0
G1 X-0.1S450
G1 X-1S0
G1 X-0.2S450
G1 X-0.4S0
G1 X-0.4S450
G1 X-0.1S0
G1 X-0.3S450
G1 X-1.75S0
G1 Y0.1S0
G1 X1.75S0
G1 X0.3S450
G1 X0.1S0
G1 X0.4S450
G1 X0.5S0
G1 X0.3S450
G1 X0.6S0
G1 X0.3S450
G1 X0.1S0
G1 X0.1S450
G1 X2.5S0
G1 X0.2S450
G1 X0.2S0
G1 X0.2S450
G1 X2.6S0
G1 X0.2S450
G1 X0.3S0
G1 X0.4S450
G1 X0.4S0
G1 X0.3S450
G1 X0.3S0
G1 X0.7S450
G1 X5.65S0
G1 Y0.1S0
G1 X-5.65S0
G1 X-0.6S450
G1 X-0.5S0
G1 X-0.9S450
G1 X-0.4S0
G1 X-0.2S450
G1 X-2.6S0
G1 X-0.2S450
G1 X-0.3S0
G1 X-0.1S450
G1 X-2.5S0
G1 X-0.1S450
G1 X-0.3S0
G1 X-0.9S450
G1 X-0.7S0
G1 X-0.3S450
G1 X-0.1S0
G1 X-0.3S450
G1 X-1.75S0
G1 X0.1Y0.1S0
G1 X1.75S0
G1 X0.5S450
G1 X1.1S0
G1 X0.4S450
G1 X0.4S0
G1 X0.2S450
G1 X2.5S0
G1 X0.1S450
G1 X0.4S0
G1 X0.1S450
G1 X2.7S0
G1 X0.1S450
G1 X0.7S0
G1 X0.2S450
G1 X1S0
G1 X0.4S450
G1 X5.75S0
G1 Y0.1S0
G1 X-5.75S0
G1 X-0.3S450
G1 X-1.2S0
G1 X-0.1S450
G1 X-0.7S0
G1 X-0.1S450
G1 X-2.6S0
G1 X-0.2S450
G1 X-3S0
G1 X-0.2S450
G1 X-0.6S0
G1 X-0.1S450
G1 X-1.4S0
G1 X-0.2S450
G1 X-1.75S0
G1 X1.6Y0.1S0
G1 X1.75S0
G1 X0.2S450
G1 X0.5S0
G1 X0.2S450
G1 X3S0
G1 X0.2S450
G1 X2.6S0
G1 X0.1S450
G1 X0.6S0
G1 X0.3S450
G1 X7.15S0
G1 Y0.1S0
G1 X-7.15S0
G1 X-0.3S450
G1 X-3.3S0
G1 X-0.1S450
G1 X-3.1S0
G1 X-0.2S450
G1 X-0.4S0
G1 X-0.2S450
G1 X-1.75S0
G1 Y0.1S0
G1 X1.75S0
G1 X0.2S450
G1 X0.4S0
G1 X0.2S450
G1 X3.1S0
G1 X0.1S450
G1 X3.2S0
G1 X0.2S450
G1 X0.1S0
G1 X0.1S450
G1 X7.15S0
G1 Y0.1S0
G1 X-7.05S0
G1 X-0.2S450
G1 X-0.1S0
G1 X-0.2S450
G1 X-6.4S0
G1 X-0.2S450
G1 X-0.3S0
G1 X-0.2S450
G1 X-1.75S0
G1 Y0.1S0
G1 X1.75S0
G1 X0.2S450
G1 X0.3S0
G1 X0.2S450
G1 X6.4S0
G1 X0.1S450
G1 X0.2S0
G1 X0.4S450
G1 X6.85S0
G1 Y0.1S0
G1 X-6.55S0
G1 X-0.4S450
G1 X-0.5S0
G1 X-0.2S450
G1 X-6.3S0
G1 X-0.2S450
G1 X-0.2S0
G1 X-0.2S450
G1 X-1.75S0
G1 Y0.1S0
G1 X1.75S0
G1 X0.2S450
G1 X0.2S0
G1 X0.1S450
G1 X6.4S0
G1 X0.2S450
G1 X0.7S0
G1 X0.5S450
G1 X6.25S0
G1 Y0.1S0
G1 X-5.95S0
G1 X-0.5S450
G1 X-1.1S0
G1 X-0.1S450
G1 X-6.4S0
G1 X-0.1S450
G1 X-0.2S0
G1 X-0.1S450
G1 X-1.75S0
G1 Y0.1S0
G1 X1.75S0
G1 X0.2S450
G1 X0.1S0
G1 X0.1S450
G1 X6.3S0
G1 X0.2S450
G1 X1.4S0
G1 X0.4S450
G1 X5.75S0
G1 Y0.1S0
G1 X-5.75S0
G1 X-0.2S450
G1 X-1.5S0
G1 X-0.3S450
G1 X-6.5S0
G1 X-0.2S450
G1 X-1.75S0
G1 X0.1Y0.1S0
G1 X1.75S0
G1 X0.2S450
G1 X6.4S0
G1 X0.5S450
G1 X1.3S0
G1 X0.2S450
G1 X5.75S0
G1 Y0.1S0
G1 X-5.75S0
G1 X-0.2S450
G1 X-1.1S0
G1 X-0.4S450
G1 X-0.2S0
G1 X-0.1S450
G1 X-6.4S0
G1 X-0.2S450
G1 X-1.75S0
G1 Y0.1S0
G1 X1.75S0
G1 X0.2S450
G1 X1.4S0
G1 X0.1S450
G1 X4.8S0
G1 X0.2S450
G1 X0.5S0
G1 X0.3S450
G1 X0.9S0
G1 X0.1S450
G1 X5.85S0
G1 Y0.1S0
G1 X-5.85S0
G1 X-0.2S450
G1 X-0.7S0
G1 X-0.2S450
G1 X-0.7S0
G1 X-0.2S450
G1 X-1.3S0
G1 X-0.2S450
G1 X-3.4S0
G1 X-0.2S450
G1 X-1.2S0
G1 X-0.1S450
G1 X-1.75S0
G1 Y0.1S0
G1 X1.75S0
G1 X0.2S450
G1 X0.9S0
G1 X0.3S450
G1 X3.6S0
G1 X0.4S450
G1 X1S0
G1 X0.2S450
G1 X0.7S0
G1 X0.2S450
G1 X0.7S0
G1 X0.2S450
G1 X5.85S0
G1 Y0.1S0
G1 X-5.85S0
G1 X-0.2S450
G1 X-0.8S0
G1 X-0.2S450
G1 X-0.7S0
G1 X-0.1S450
G1 X-0.8S0
G1 X-0.3S450
G1 X-4.1S0
G1 X-0.3S450
G1 X-0.7S0
G1 X-0.2S450
G1 X-1.75S0
G1 Y0.1S0
G1 X1.75S0
G1 X0.2S450
G1 X0.6S0
G1 X0.3S450
G1 X4.3S0
G1 X0.3S450
G1 X0.7S0
G1 X0.1S450
G1 X0.6S0
G1 X0.2S450
G1 X0.9S0
G1 X0.1S450
G1 X5.95S0
G1 Y0.1S0
G1 X-5.95S0
G1 X-0.2S450
G1 X-0.8S0
G1 X-0.2S450
G1 X-0.6S0
G1 X-0.2S450
G1 X-0.4S0
G1 X-0.3S450
G1 X-4.7S0
G1 X-0.3S450
G1 X-0.4S0
G1 X-0.1S450
G1 X-1.75S0
G1 Y0.1S0
G1 X1.75S0
G1 X0.1S450
G1 X0.3S0
G1 X0.3S450
G1 X4.9S0
G1 X0.3S450
G1 X0.3S0
G1 X0.2S450
G1 X0.5S0
G1 X0.2S450
G1 X0.9S0
G1 X0.2S450
G1 X5.95S0
G1 Y0.1S0
G1 X-6.05S0
G1 X-0.1S450
G1 X-1S0
G1 X-0.2S450
G1 X-0.4S0
G1 X-0.2S450
G1 X-0.2S0
G1 X-0.2S450
G1 X-5.3S0
G1 X-0.2S450
G1 X-0.2S0
G1 X-0.1S450
G1 X-1.75S0
G1 Y0.1S0
G1 X1.75S0
G1 X0.4S450
G1 X1.9S0
G1 X0.2S450
G1 X3.4S0
G1 X0.2S450
G1 X0.1S0
G1 X0.2S450
G1 X0.4S0
G1 X0.2S450
G1 X0.9S0
G1 X0.2S450
G1 X6.05S0
G1 Y0.1S0
G1 X-6.05S0
G1 X-0.2S450
G1 X-1S0
G1 X-0.2S450
G1 X-0.4S0
G1 X-0.3S450
G1 X-3.3S0
G1 X-0.6S450
G1 X-1.8S0
G1 X-0.3S450
G1 X-1.75S0
G1 Y0.1S0
G1 X1.75S0
G1 X0.2S450
G1 X1.7S0
G1 X0.3S450
G1 X0.4S0
G1 X0.2S450
G1 X3.2S0
G1 X0.3S450
G1 X0.3S0
G1 X0.2S450
G1 X1.1S0
G1 X0.2S450
G1 X6.05S0
G1 Y0.1S0
G1 X-6.15S0
G1 X-0.1S450
G1 X-1.2S0
G1 X-0.2S450
G1 X-0.2S0
G1 X-0.2S450
G1 X-3.2S0
G1 X-0.2S450
G1 X-0.6S0
G1 X-0.2S450
G1 X-1.8S0
G1 X-0.2S450
G1 X-1.75S0
G1 X-0.1Y0.1S0
G1 X1.75S0
G1 X0.2S450
G1 X1.8S0
G1 X0.2S450
G1 X0.8S0
G1 X0.2S450
G1 X3.2S0
G1 X0.1S450
G1 X0.2S0
G1 X0.2S450
G1 X1.1S0
G1 X0.2S450
G1 X6.15S0
G1 Y0.1S0
G1 X-6.15S0
G1 X-0.2S450
G1 X-1.2S0
G1 X-0.4S450
G1 X-3.1S0
G1 X-0.2S450
G1 X-1S0
G1 X-0.2S450
G1 X-1.8S0
G1 X-0.2S450
G1 X-1.75S0
G1 X-0.1Y0.1S0
G1 X1.75S0
G1 X0.2S450
G1 X1.9S0
G1 X0.1S450
G1 X1.2S0
G1 X0.1S450
G1 X3.2S0
G1 X0.2S450
G1 X1.3S0
G1 X0.1S450
G1 X6.25S0
G1 Y0.1S0
G1 X-6.25S0
G1 X-0.2S450
G1 X-1.2S0
G1 X-0.2S450
G1 X-3.1S0
G1 X-0.2S450
G1 X-1.2S0
G1 X-0.2S450
G1 X-1.9S0
G1 X-0.2S450
G1 X-1.75S0
G1 Y0.1S0
G1 X1.75S0
G1 X0.2S450
G1 X1.9S0
G1 X0.1S450
G1 X1.4S0
G1 X0.2S450
G1 X2.1S0
G1 X0.3S450
G1 X0.6S0
G1 X0.2S450
G1 X1.2S0
G1 X0.2S450
G1 X6.25S0
G1 Y0.1S0
G1 X-6.25S0
G1 X-0.2S450
G1 X-1.2S0
G1 X-0.1S450
G1 X-0.4S0
G1 X-0.9S450
G1 X-1.8S0
G1 X-0.2S450
G1 X-1.4S0
G1 X-0.2S450
G1 X-1.9S0
G1 X-0.2S450
G1 X-1.75S0
G1 X-0.1Y0.1S0
G1 X1.75S0
G1 X0.2S450
G1 X2S0
G1 X0.1S450
G1 X1.6S0
G1 X0.1S450
G1 X1.7S0
G1 X0.3S450
G1 X0.5S0
G1 X0.3S450
G1 X0.3S0
G1 X0.1S450
G1 X1.2S0
G1 X2.8S450
G1 X3.65S0
G1 Y0.1S0
G1 X-3.65S0
G1 X-2.3S450
G1 X-1.6S0
G1 X-0.2S450
G1 X-0.2S0
G1 X-0.2S450
G1 X-0.9S0
G1 X-0.2S450
G1 X-1.5S0
G1 X-0.2S450
G1 X-1.6S0
G1 X-0.2S450
G1 X-2S0
G1 X-0.1S450
G1 X-1.75S0
G1 X-0.1Y0.1S0
G1 X1.75S0
G1 X0.5S450
G1 X1.7S0
G1 X0.2S450
G1 X1.7S0
G1 X0.1S450
G1 X1.4S0
G1 X0.2S450
G1 X1S0
G1 X0.2S450
G1 X0.2S0
G1 X0.2S450
G1 X3.8S0
G1 X0.2S450
G1 X3.55S0
G1 Y0.1S0
G1 X-3.45S0
G1 X-0.2S450
G1 X-3.9S0
G1 X-0.2S450
G1 X-0.1S0
G1 X-0.2S450
G1 X-1.1S0
G1 X-0.2S450
G1 X-1.3S0
G1 X-0.2S450
G1 X-1.8S0
G1 X-0.1S450
G1 X-1.6S0
G1 X-0.6S450
G1 X-1.75S0
G1 X-0.1Y0.1S0
G1 X1.75S0
G1 X0.2S450
G1 X0.4S0
G1 X0.3S450
G1 X1.3S0
G1 X0.2S450
G1 X1.8S0
G1 X0.2S450
G1 X1.3S0
G1 X0.1S450
G1 X1.2S0
G1 X0.2S450
G1 X0.1S0
G1 X0.2S450
G1 X3.9S0
G1 X0.2S450
G1 X3.45S0
G1 Y0.1S0
G1 X-3.35S0
G1 X-0.2S450
G1 X-4S0
G1 X-0.1S450
G1 X-0.2S0
G1 X-0.1S450
G1 X-1.3S0
G1 X-0.2S450
G1 X-1.2S0
G1 X-0.1S450
G1 X-1.9S0
G1 X-0.2S450
G1 X-1.3S0
G1 X-0.2S450
G1 X-0.5S0
G1 X-0.2S450
G1 X-1.75S0
G1 Y0.1S0
G1 X1.75S0
G1 X0.1S450
G1 X0.7S0
G1 X0.2S450
G1 X1.2S0
G1 X0.1S450
G1 X2S0
G1 X0.1S450
G1 X1.2S0
G1 X0.2S450
G1 X1.3S0
G1 X0.1S450
G1 X0.2S0
G1 X0.1S450
G1 X4S0
G1 X0.2S450
G1 X3.35S0
G1 Y0.1S0
G1 X-3.25S0
G1 X-0.2S450
G1 X-4.1S0
G1 X-0.1S450
G1 X-0.2S0
G1 X-0.1S450
G1 X-1.3S0
G1 X-0.2S450
G1 X-1.1S0
G1 X-0.2S450
G1 X-2S0
G1 X-0.2S450
G1 X-1.1S0
G1 X-0.2S450
G1 X-0.7S0
G1 X-0.2S450
G1 X-1.75S0
G1 Y0.1S0
G1 X1.75S0
G1 X0.2S450
G1 X0.8S0
G1 X0.1S450
G1 X1.1S0
G1 X0.2S450
G1 X2S0
G1 X0.2S450
G1 X1.2S0
G1 X0.1S450
G1 X1.2S0
G1 X0.2S450
G1 X0.2S0
G1 X0.1S450
G1 X4.1S0
G1 X0.2S450
G1 X3.25S0
G1 Y0.1S0
G1 X-3.15S0
G1 X-0.2S450
G1 X-4.1S0
G1 X-0.2S450
G1 X-0.2S0
G1 X-0.2S450
G1 X-1.1S0
G1 X-0.2S450
G1 X-1.2S0
G1 X-0.2S450
G1 X-2S0
G1 X-0.2S450
G1 X-1S0
G1 X-0.2S450
G1 X-0.8S0
G1 X-0.2S450
G1 X-1.75S0
G1 Y0.1S0
G1 X1.75S0
G1 X0.2S450
G1 X0.8S0
G1 X0.2S450
G1 X1S0
G1 X0.2S450
G1 X2.1S0
G1 X0.1S450
G1 X1.2S0
G1 X0.2S450
G1 X1S0
G1 X0.2S450
G1 X0.3S0
G1 X0.2S450
G1 X4.1S0
G1 X0.2S450
G1 X3.15S0
G1 Y0.1S0
G1 X-3.05S0
G1 X-0.2S450
G1 X-4.2S0
G1 X-0.2S450
G1 X-0.4S0
G1 X-0.2S450
G1 X-0.8S0
G1 X-0.2S450
G1 X-1.3S0
G1 X-0.1S450
G1 X-2S0
G1 X-0.4S450
G1 X-1S0
G1 X-0.1S450
G1 X-0.8S0
G1 X-0.2S450
G1 X-1.75S0
G1 Y0.1S0
G1 X1.75S0
G1 X0.2S450
G1 X0.8S0
G1 X0.1S450
G1 X1S0
G1 X0.4S450
G1 X2S0
G1 X0.1S450
G1 X1.4S0
G1 X0.3S450
G1 X0.4S0
G1 X0.3S450
G1 X0.5S0
G1 X0.2S450
G1 X4.2S0
G1 X0.2S450
G1 X3.05S0
G1 Y0.1S0
G1 X-2.95S0
G1 X-0.2S450
G1 X-4.3S0
G1 X-0.2S450
G1 X-0.6S0
G1 X-0.7S450
G1 X-1.5S0
G1 X-0.6S450
G1 X-1.5S0
G1 X-0.2S450
G1 X-0.1S0
G1 X-0.2S450
G1 X-1S0
G1 X-0.2S450
G1 X-0.7S0
G1 X-0.1S450
G1 X-1.75S0
G1 Y0.1S0
G1 X1.75S0
G1 X0.1S450
G1 X0.7S0
G1 X0.2S450
G1 X1S0
G1 X0.2S450
G1 X0.1S0
G1 X0.2S450
G1 X1.3S0
G1 X0.9S450
G1 X2.7S0
G1 X0.2S450
G1 X4.3S0
G1 X0.2S450
G1 X2.95S0
G1 Y0.1S0
G1 X-2.85S0
G1 X-0.2S450
G1 X-4.4S0
G1 X-0.2S450
G1 X-2.6S0
G1 X-0.2S450
G1 X-0.7S0
G1 X-0.3S450
G1 X-1S0
G1 X-0.8S450
G1 X-0.9S0
G1 X-0.2S450
G1 X-0.5S0
G1 X-0.2S450
G1 X-1.75S0
G1 Y0.1S0
G1 X1.75S0
G1 X0.8S450
G1 X0.9S0
G1 X0.1S450
G1 X0.6S0
G1 X0.3S450
G1 X0.7S0
G1 X0.3S450
G1 X3.7S0
G1 X0.2S450
G1 X4.4S0
G1 X0.2S450
G1 X2.85S0
G1 Y0.1S0
G1 X-2.75S0
G1 X-0.2S450
G1 X-4.5S0
G1 X-0.2S450
G1 X-3.9S0
G1 X-0.3S450
G1 X-0.2S0
G1 X-0.4S450
G1 X-2S0
G1 X-0.5S450
G1 X-1.75S0
G1 Y0.1S0
G1 X1.75S0
G1 X0.2S450
G1 X2.5S0
G1 X0.5S450
G1 X4.1S0
G1 X0.2S450
G1 X4.5S0
G1 X0.2S450
G1 X2.75S0
G1 Y0.1S0
G1 X-2.75S0
G1 X-0.1S450
G1 X-4.6S0
G1 X-0.2S450
G1 X-7.1S0
G1 X-0.2S450
G1 X-1.75S0
G1 X0.1Y0.1S0
G1 X1.75S0
G1 X0.1S450
G1 X4.9S0
G1 X0.7S450
G1 X1.6S0
G1 X0.1S450
G1 X4.6S0
G1 X0.2S450
G1 X2.65S0
G1 Y0.1S0
G1 X-2.65S0
G1 X-0.1S450
G1 X-4.7S0
G1 X-0.1S450
G1 X-1.5S0
G1 X-0.9S450
G1 X-4.7S0
G1 X-0.2S450
G1 X-1.75S0
G1 Y0.1S0
G1 X1.75S0
G1 X0.2S450
G1 X0.9S0
G1 X0.6S450
G1 X1.1S0
G1 X0.2S450
G1 X1.8S0
G1 X1.1S450
G1 X1.4S0
G1 X0.2S450
G1 X4.6S0
G1 X0.2S450
G1 X2.55S0
G1 Y0.1S0
G1 X-2.55S0
G1 X-0.2S450
G1 X-4.4S0
G1 X-0.4S450
G1 X-1.3S0
G1 X-1.3S450
G1 X-1.6S0
G1 X-0.4S450
G1 X-0.9S0
G1 X-0.9S450
G1 X-0.7S0
G1 X-0.1S450
G1 X-1.75S0
G1 Y0.1S0
G1 X1.75S0
G1 X0.2S450
G1 X0.5S0
G1 X1.1S450
G1 X0.8S0
G1 X0.3S450
G1 X1.7S0
G1 X1.3S450
G1 X1.3S0
G1 X0.1S450
G1 X0.2S0
G1 X0.4S450
G1 X4.2S0
G1 X0.2S450
G1 X2.45S0
G1 Y0.1S0
G1 X-2.45S0
G1 X-0.2S450
G1 X-4S0
G1 X-0.4S450
G1 X-0.4S0
G1 X-0.2S450
G1 X-1.2S0
G1 X-1.3S450
G1 X-2.7S0
G1 X-1.2S450
G1 X-0.5S0
G1 X-0.2S450
G1 X-1.75S0
G1 X0.1Y0.1S0
G1 X1.75S0
G1 X0.1S450
G1 X0.5S0
G1 X1.2S450
G1 X2.7S0
G1 X1.3S450
G1 X1.2S0
G1 X0.2S450
G1 X0.6S0
G1 X0.5S450
G1 X3.8S0
G1 X0.1S450
G1 X2.45S0
G1 Y0.1S0
G1 X-2.35S0
G1 X-0.2S450
G1 X-3.5S0
G1 X-0.5S450
G1 X-0.9S0
G1 X-0.2S450
G1 X-1.2S0
G1 X-0.5S450
G1 X-0.4S0
G1 X-0.4S450
G1 X-2.7S0
G1 X-1.3S450
G1 X-0.3S0
G1 X-0.2S450
G1 X-1.75S0
G1 Y0.1S0
G1 X1.75S0
G1 X0.2S450
G1 X0.3S0
G1 X1.3S450
G1 X2.7S0
G1 X0.4S450
G1 X0.4S0
G1 X0.5S450
G1 X1.2S0
G1 X0.2S450
G1 X1.2S0
G1 X0.5S450
G1 X3.2S0
G1 X0.2S450
G1 X2.35S0
G1 Y0.1S0
G1 X-2.25S0
G1 X-0.2S450
G1 X-3S0
G1 X-0.6S450
G1 X-1.4S0
G1 X-0.2S450
G1 X-1.3S0
G1 X-0.4S450
G1 X-0.4S0
G1 X-0.4S450
G1 X-2.7S0
G1 X-0.3S450
G1 X-0.4S0
G1 X-0.6S450
G1 X-0.3S0
G1 X-0.2S450
G1 X-1.75S0
G1 X0.1Y0.1S0
G1 X1.75S0
G1 X0.1S450
G1 X0.4S0
G1 X0.5S450
G1 X0.4S0
G1 X0.3S450
G1 X2.8S0
G1 X0.3S450
G1 X0.4S0
G1 X0.4S450
G1 X1.3S0
G1 X0.2S450
G1 X1.8S0
G1 X0.6S450
G1 X2.6S0
G1 X0.2S450
G1 X2.25S0
G1 Y0.1S0
G1 X-2.25S0
G1 X-0.1S450
G1 X-2.3S0
G1 X-0.7S450
G1 X-2.2S0
G1 X-0.1S450
G1 X-1.4S0
G1 X-0.9S450
G1 X-2.9S0
G1 X-0.3S450
G1 X-0.4S0
G1 X-0.5S450
G1 X-0.4S0
G1 X-0.1S450
G1 X-1.75S0
G1 Y0.1S0
G1 X1.75S0
G1 X0.2S450
G1 X0.4S0
G1 X0.4S450
G1 X0.4S0
G1 X0.2S450
G1 X3.1S0
G1 X0.6S450
G1 X1.6S0
G1 X0.1S450
G1 X2.6S0
G1 X0.7S450
G1 X1.9S0
G1 X0.2S450
G1 X2.15S0
G1 Y0.1S0
G1 X-2.15S0
G1 X-0.2S450
G1 X-1.3S0
G1 X-0.9S450
G1 X-3S0
G1 X-0.2S450
G1 X-5.3S0
G1 X-0.9S450
G1 X-0.4S0
G1 X-0.2S450
G1 X-1.75S0
G1 Y0.1S0
G1 X1.75S0
G1 X0.2S450
G1 X0.6S0
G1 X0.6S450
G1 X5.4S0
G1 X0.2S450
G1 X3.5S0
G1 X1.2S450
G1 X0.6S0
G1 X0.1S450
G1 X2.15S0
G1 Y0.1S0
G1 X-2.05S0
G1 X-1.3S450
G1 X-4.2S0
G1 X-0.2S450
G1 X-6.6S0
G1 X-0.1S450
G1 X-1.75S0
G1 Y0.1S0
G1 X1.75S0
G1 X0.2S450
G1 X6.5S0
G1 X0.1S450
G1 X7.65S0
G1 Y0.1S0
G1 X-7.65S0
G1 X-0.5S450
G1 X-6.1S0
G1 X-0.2S450
G1 X-1.75S0
G1 X0.1Y0.1S0
G1 X1.75S0
G1 X0.1S450
G1 X6.3S0
G1 X0.5S450
G1 X7.45S0
G1 Y0.1S0
G1 X-7.15S0
G1 X-0.5S450
G1 X-6.5S0
G1 X-0.2S450
G1 X-1.75S0
G1 Y0.1S0
G1 X1.75S0
G1 X0.2S450
G1 X6.8S0
G1 X0.5S450
G1 X6.85S0
G1 Y0.1S0
G1 X-6.65S0
G1 X-0.4S450
G1 X-7S0
G1 X-0.2S450
G1 X-1.75S0
G1 Y0.1S0
G1 X1.75S0
G1 X0.2S450
G1 X7.3S0
G1 X0.4S450
G1 X6.35S0
G1 Y0.1S0
G1 X-6.15S0
G1 X-0.4S450
G1 X-7.4S0
G1 X-0.2S450
G1 X-1.75S0
G1 Y0.1S0
G1 X1.75S0
G1 X0.2S450
G1 X7.7S0
G1 X0.3S450
G1 X5.95S0
G1 Y0.1S0
G1 X-5.65S0
G1 X-0.4S450
G1 X-7.8S0
G1 X-0.3S450
G1 X-1.75S0
G1 Y0.1S0
G1 X1.75S0
G1 X0.1S450
G1 X0.1S0
G1 X0.2S450
G1 X7.9S0
G1 X0.4S450
G1 X5.45S0
G1 Y0.1S0
G1 X-5.25S0
G1 X-0.4S450
G1 X-3.4S0
G1 X-0.1S450
G1 X-4.6S0
G1 X-0.2S450
G1 X-0.1S0
G1 X-0.1S450
G1 X-1.75S0
G1 Y0.1S0
G1 X1.75S0
G1 X0.1S450
G1 X0.2S0
G1 X0.2S450
G1 X4.6S0
G1 X0.2S450
G1 X3.4S0
G1 X0.4S450
G1 X5.05S0
G1 Y0.1S0
G1 X-4.85S0
G1 X-0.4S450
G1 X-3.5S0
G1 X-0.2S450
G1 X-5.1S0
G1 X-0.1S450
G1 X-1.75S0
G1 Y0.1S0
G1 X1.75S0
G1 X0.1S450
G1 X4.9S0
G1 X0.6S450
G1 X3.5S0
G1 X0.4S450
G1 X4.65S0
G1 Y0.1S0
G1 X-4.55S0
G1 X-0.3S450
G1 X-3.5S0
G1 X-0.3S450
G1 X-0.3S0
G1 X-0.5S450
G1 X-4.5S0
G1 X-0.2S450
G1 X-1.75S0
G1 Y0.1S0
G1 X1.75S0
G1 X0.2S450
G1 X1S0
G1 X0.3S450
G1 X2.8S0
G1 X0.6S450
G1 X0.7S0
G1 X0.4S450
G1 X3.5S0
G1 X0.3S450
G1 X4.35S0
G1 Y0.1S0
G1 X-4.15S0
G1 X-0.5S450
G1 X-3.4S0
G1 X-0.3S450
G1 X-1.2S0
G1 X-0.9S450
G1 X-1.8S0
G1 X-0.6S450
G1 X-1.1S0
G1 X-0.2S450
G1 X-1.75S0
G1 Y0.1S0
G1 X1.75S0
G1 X0.2S450
G1 X1.4S0
G1 X2.5S450
G1 X1.9S0
G1 X0.3S450
G1 X3.3S0
G1 X0.6S450
G1 X3.95S0
G1 Y0.1S0
G1 X-3.85S0
G1 X-0.7S450
G1 X-3S0
G1 X-0.4S450
G1 X-2.9S0
G1 X-1.1S450
G1 X-0.4S0
G1 X-0.1S450
G1 X-1.5S0
G1 X-0.2S450
G1 X-1.75S0
G1 Y0.1S0
G1 X1.75S0
G1 X0.2S450
G1 X1.5S0
G1 X0.2S450
G1 X4.5S0
G1 X0.4S450
G1 X2.9S0
G1 X0.8S450
G1 X3.65S0
G1 Y0.1S0
G1 X-3.55S0
G1 X-0.9S450
G1 X-2.6S0
G1 X-0.5S450
G1 X-4.7S0
G1 X-0.2S450
G1 X-1.5S0
G1 X-0.2S450
G1 X-1.75S0
G1 Y0.1S0
G1 X1.75S0
G1 X0.2S450
G1 X1.5S0
G1 X0.2S450
G1 X5S0
G1 X0.4S450
G1 X2.4S0
G1 X1.1S450
G1 X3.35S0
G1 Y0.1S0
G1 X-3.25S0
G1 X-1.2S450
G1 X-2.1S0
G1 X-0.5S450
G1 X-5.2S0
G1 X-0.2S450
G1 X-1.5S0
G1 X-0.1S450
G1 X-1.75S0
G1 Y0.1S0
G1 X1.75S0
G1 X0.1S450
G1 X1.6S0
G1 X0.1S450
G1 X5.5S0
G1 X0.5S450
G1 X1.8S0
G1 X1.3S450
G1 X3.15S0
G1 Y0.1S0
G1 X-3.05S0
G1 X-1.4S450
G1 X-1.4S0
G1 X-0.6S450
G1 X-5.8S0
G1 X-0.1S450
G1 X-1.6S0
G1 X-0.1S450
G1 X-1.75S0
G1 Y0.1S0
G1 X1.75S0
G1 X0.1S450
G1 X1.6S0
G1 X0.1S450
G1 X6.2S0
G1 X0.6S450
G1 X1S0
G1 X1.5S450
G1 X2.95S0
G1 Y0.1S0
G1 X-2.85S0
G1 X-1.6S450
G1 X-0.5S0
G1 X-0.8S450
G1 X-6.4S0
G1 X-0.2S450
G1 X-1.5S0
G1 X-0.2S450
G1 X-1.75S0
G1 Y0.1S0
G1 X1.75S0
G1 X0.2S450
G1 X1.5S0
G1 X0.2S450
G1 X6.8S0
G1 X2.6S450
G1 X2.75S0
G1 Y0.1S0
G1 X-2.75S0
G1 X-2S450
G1 X-7.4S0
G1 X-0.2S450
G1 X-1.5S0
G1 X-0.2S450
G1 X-1.75S0
G1 X0.1Y0.1S0
G1 X1.75S0
G1 X0.1S450
G1 X1.5S0
G1 X0.2S450
G1 X8.1S0
G1 X1.2S450
G1 X2.85S0
G1 Y0.1S0
G1 X-12.15S0
G1 X-0.2S450
G1 X-1.5S0
G1 X-0.1S450
G1 X-1.75S0
G1 Y0.1S0
G1 X1.75S0
G1 X0.1S450
G1 X1.5S0
G1 X0.2S450
G1 X12.15S0
G1 Y0.1S0
G1 X-12.15S0
G1 X-0.1S450
G1 X-1.5S0
G1 X-0.2S450
G1 X-1.75S0
G1 Y0.1S0
G1 X1.75S0
G1 X0.2S450
G1 X1.5S0
G1 X0.1S450
G1 X12.15S0
G1 Y0.1S0
G1 X-12.15S0
G1 X-0.1S450
G1 X-1.5S0
G1 X-0.1S450
G1 X-1.75S0
G1 Y0.1S0
G1 X1.75S0
G1 X0.1S450
G1 X1.5S0
G1 X0.1S450
G1 X12.15S0
G1 Y0.1S0
G1 X-12.15S0
G1 X-0.1S450
G1 X-1.4S0
G1 X-0.2S450
G1 X-1.75S0
G1 Y0.1S0
G1 X1.75S0
G1 X0.2S450
G1 X1.4S0
G1 X0.1S450
G1 X12.15S0
G1 Y0.1S0
G1 X-12.15S0
G1 X-0.1S450
G1 X-1.4S0
G1 X-0.2S450
G1 X-1.75S0
G1 X0.1Y0.1S0
G1 X1.75S0
G1 X0.1S450
G1 X1.4S0
G1 X0.2S450
G1 X12.05S0
G1 Y0.1S0
G1 X-12.05S0
G1 X-0.2S450
G1 X-1.3S0
G1 X-0.2S450
G1 X-1.75S0
G1 Y0.1S0
G1 X1.75S0
G1 X0.2S450
G1 X1.3S0
G1 X0.2S450
G1 X12.05S0
G1 Y0.1S0
G1 X-12.05S0
G1 X-0.2S450
G1 X-1.3S0
G1 X-0.1S450
G1 X-1.75S0
G1 Y0.1S0
G1 X1.75S0
G1 X0.2S450
G1 X1.2S0
G1 X0.2S450
G1 X12.05S0
G1 Y0.1S0
G1 X-12.05S0
G1 X-0.2S450
G1 X-1.2S0
G1 X-0.2S450
G1 X-1.75S0
G1 X0.1Y0.1S0
G1 X1.75S0
G1 X0.1S450
G1 X1.2S0
G1 X0.2S450
G1 X12.05S0
G1 Y0.1S0
G1 X-12.05S0
G1 X-0.2S450
G1 X-1.1S0
G1 X-0.2S450
G1 X-1.75S0
G1 Y0.1S0
G1 X1.75S0
G1 X0.3S450
G1 X1S0
G1 X0.2S450
G1 X12.05S0
G1 Y0.1S0
G1 X-12.05S0
G1 X-0.2S450
G1 X-0.9S0
G1 X-0.3S450
G1 X-1.75S0
G1 Y0.1S0
G1 X1.75S0
G1 X0.5S450
G1 X0.7S0
G1 X0.2S450
G1 X12.05S0
G1 Y0.1S0
G1 X-12.05S0
G1 X-0.2S450
G1 X-0.5S0
G1 X-0.7S450
G1 X-1.75S0
G1 X0.1Y0.1S0
G1 X1.75S0
G1 X1.3S450
G1 X12.05S0
G1 Y0.1S0
G1 X-12.05S0
G1 X-1.3S450
G1 X-1.75S0
G1 X0.1Y0.1S0
G1 X1.75S0
G1 X1.2S450
G1 X12.05S0
G1 Y0.1S0
G1 X-12.05S0
G1 X-1.2S450
G1 X-1.75S0
G1 X0.1Y0.1S0
G1 X1.75S0
G1 X1.1S450
G1 X12.05S0
G1 Y0.1S0
G1 X-12.05S0
G1 X-1.1S450
G1 X-1.75S0
G1 X0.1Y0.1S0
G1 X1.75S0
G1 X1S450
G1 X12.05S0
G1 Y0.1S0
G1 X-12.05S0
G1 X-1S450
G1 X-1.75S0
G1 X0.1Y0.1S0
G1 X1.75S0
G1 X0.9S450
G1 X12.05S0
G1 Y0.1S0
G1 X-12.05S0
G1 X-0.9S450
G1 X-1.75S0
G1 X0.1Y0.1S0
G1 X1.75S0
G1 X0.8S450
G1 X12.05S0
G1 Y0.1S0
G1 X-12.05S0
G1 X-0.7S450
G1 X-1.75S0
G1 Y0.1S0
G1 X1.75S0
G1 X0.7S450
G1 X12.05S0
G1 Y0.1S0
G1 X-12.05S0
G1 X-0.6S450
G1 X-1.75S0
G1 X0.1Y0.1S0
G1 X1.75S0
G1 X0.5S450
G1 X12.05S0
G1 Y0.1S0
G1 X-12.15S0
G1 X-0.4S450
G1 X-1.75S0
G1 X0.1Y0.1S0
G1 X1.75S0
G1 X0.3S450
G1 X12.15S0
G1 Y0.1S0
G1 X-12.15S0
G1 X-0.1S450
G1 X-1.75S0
G1 X10.5Y0.1S0
G1 X3.5S0
G1 Y0.1S0
G1 X-3.5S0
G1 Y0.1S0
G1 X3.5S0
G1 Y0.1S0
G1 X-3.5S0
G1 Y0.1S0
G1 X3.5S0
G1 Y0.1S0
G1 X-3.5S0
G1 Y0.1S0
G1 X3.5S0
G1 Y0.1S0
G1 X-3.5S0
G1 Y0.1S0
G1 X3.5S0
G1 Y0.1S0
G1 X-3.5S0
G1 Y0.1S0
G1 X3.5S0
G1 Y0.1S0
G1 X-3.5S0
G90
; Scan @ 100 mm/sec, 20% power
M8
G0 X32.668Y8.05
; Layer C01
G91
G1 X2.5F6000S0
G1 X1.664S200
G1 X2.5S0
G1 X0.654Y0.1S0
G1 X-2.5S0
G1 X-2.972S200
G1 X-2.5S0
G1 X-0.419Y0.1S0
G1 X2.5S0
G1 X3.81S200
G1 X2.5S0
G1 X0.347Y0.1S0
G1 X-2.5S0
G1 X-4.504S200
G1 X-2.5S0
G1 X-0.294Y0.1S0
G1 X2.5S0
G1 X5.092S200
G1 X2.5S0
G1 X0.266Y0.1S0
G1 X-2.5S0
G1 X-5.624S200
G1 X-2.5S0
G1 X-0.224Y0.1S0
G1 X2.5S0
G1 X6.072S200
G1 X2.5S0
G1 X0.223Y0.1S0
G1 X-2.5S0
G1 X-6.518S200
G1 X-2.5S0
G1 X-0.194Y0.1S0
G1 X2.5S0
G1 X6.906S200
G1 X2.5S0
G1 X0.177Y0.1S0
G1 X-2.5S0
G1 X-7.26S200
G1 X-2.5S0
G1 X-0.177Y0.1S0
G1 X2.5S0
G1 X7.614S200
G1 X2.5S0
G1 X0.164Y0.1S0
G1 X-2.5S0
G1 X-7.942S200
G1 X-2.5S0
G1 X-0.144Y0.1S0
G1 X2.5S0
G1 X8.23S200
G1 X2.5S0
G1 X0.144Y0.1S0
G1 X-2.5S0
G1 X-8.518S200
G1 X-2.5S0
G1 X-0.144Y0.1S0
G1 X2.5S0
G1 X8.806S200
G1 X2.5S0
G1 X0.128Y0.1S0
G1 X-2.5S0
G1 X-9.062S200
G1 X-2.5S0
G1 X-0.118Y0.1S0
G1 X2.5S0
G1 X9.298S200
G1 X2.5S0
G1 X0.119Y0.1S0
G1 X-2.5S0
G1 X-9.536S200
G1 X-2.5S0
G1 X-0.118Y0.1S0
G1 X2.5S0
G1 X9.772S200
G1 X2.5S0
G1 X0.109Y0.1S0
G1 X-2.5S0
G1 X-9.99S200
G1 X-2.5S0
G1 X-0.098Y0.1S0
G1 X2.5S0
G1 X10.186S200
G1 X2.5S0
G1 X0.098Y0.1S0
G1 X-2.5S0
G1 X-10.382S200
G1 X-2.5S0
G1 X-0.098Y0.1S0
G1 X2.5S0
G1 X10.578S200
G1 X2.5S0
G1 X0.097Y0.1S0
G1 X-2.5S0
G1 X-10.772S200
G1 X-2.5S0
G1 X-0.084Y0.1S0
G1 X2.5S0
G1 X10.94S200
G1 X2.5S0
G1 X0.08Y0.1S0
G1 X-2.5S0
G1 X-11.1S200
G1 X-2.5S0
G1 X-0.081Y0.1S0
G1 X2.5S0
G1 X11.262S200
G1 X2.5S0
G1 X0.08Y0.1S0
G1 X-2.5S0
G1 X-11.422S200
G1 X-2.5S0
G1 X-0.081Y0.1S0
G1 X2.5S0
G1 X11.584S200
G1 X2.5S0
G1 X0.068Y0.1S0
G1 X-2.5S0
G1 X-11.72S200
G1 X-2.5S0
G1 X-0.065Y0.1S0
G1 X2.5S0
G1 X11.85S200
G1 X2.5S0
G1 X0.065Y0.1S0
G1 X-2.5S0
G1 X-11.98S200
G1 X-2.5S0
G1 X-0.066Y0.1S0
G1 X2.5S0
G1 X12.112S200
G1 X2.5S0
G1 X0.065Y0.1S0
G1 X-2.5S0
G1 X-12.242S200
G1 X-2.5S0
G1 X-0.059Y0.1S0
G1 X2.5S0
G1 X12.36S200
G1 X2.5S0
G1 X0.052Y0.1S0
G1 X-2.5S0
G1 X-12.464S200
G1 X-2.5S0
G1 X-0.052Y0.1S0
G1 X2.5S0
G1 X12.568S200
G1 X2.5S0
G1 X0.052Y0.1S0
G1 X-2.5S0
G1 X-12.672S200
G1 X-2.5S0
G1 X-0.052Y0.1S0
G1 X2.5S0
G1 X12.776S200
G1 X2.5S0
G1 X0.052Y0.1S0
G1 X-2.5S0
G1 X-12.88S200
G1 X-2.5S0
G1 X-0.041Y0.1S0
G1 X2.5S0
G1 X12.962S200
G1 X2.5S0
G1 X0.04Y0.1S0
G1 X-2.5S0
G1 X-13.042S200
G1 X-2.5S0
G1 X-0.039Y0.1S0
G1 X2.5S0
G1 X13.12S200
G1 X2.5S0
G1 X0.04Y0.1S0
G1 X-2.5S0
G1 X-13.2S200
G1 X-2.5S0
G1 X-0.039Y0.1S0
G1 X2.5S0
G1 X13.278S200
G1 X2.5S0
G1 X0.04Y0.1S0
G1 X-2.5S0
G1 X-13.358S200
G1 X-2.5S0
G1 X-0.029Y0.1S0
G1 X2.5S0
G1 X13.416S200
G1 X2.5S0
G1 X0.028Y0.1S0
G1 X-2.5S0
G1 X-13.472S200
G1 X-2.5S0
G1 X-0.028Y0.1S0
G1 X2.5S0
G1 X13.528S200
G1 X2.5S0
G1 X0.027Y0.1S0
G1 X-2.5S0
G1 X-13.582S200
G1 X-2.5S0
G1 X-0.028Y0.1S0
G1 X2.5S0
G1 X13.638S200
G1 X2.5S0
G1 X0.028Y0.1S0
G1 X-2.5S0
G1 X-13.694S200
G1 X-2.5S0
G1 X-0.021Y0.1S0
G1 X2.5S0
G1 X13.736S200
G1 X2.5S0
G1 X0.016Y0.1S0
G1 X-2.5S0
G1 X-13.768S200
G1 X-2.5S0
G1 X-0.017Y0.1S0
G1 X2.5S0
G1 X13.802S200
G1 X2.5S0
G1 X0.016Y0.1S0
G1 X-2.5S0
G1 X-13.834S200
G1 X-2.5S0
G1 X-0.016Y0.1S0
G1 X2.5S0
G1 X13.866S200
G1 X2.5S0
G1 X0.017Y0.1S0
G1 X-2.5S0
G1 X-13.9S200
G1 X-2.5S0
G1 X-0.015Y0.1S0
G1 X2.5S0
G1 X13.93S200
G1 X2.5S0
G1 X0.005Y0.1S0
G1 X-2.5S0
G1 X-13.94S200
G1 X-2.5S0
G1 X-0.006Y0.1S0
G1 X2.5S0
G1 X13.952S200
G1 X2.5S0
G1 Y0.1S0
G1 X-2.495S0
G1 X-13.962S200
G1 X-2.5S0
G1 X-0.005Y0.1S0
G1 X2.5S0
G1 X13.972S200
G1 X2.5S0
G1 X0.006Y0.1S0
G1 X-2.5S0
G1 X-13.984S200
G1 X-2.5S0
G1 X-0.005Y0.1S0
G1 X2.5S0
G1 X13.994S200
G1 X2.5S0
G1 Y0.1S0
G1 X-2.5S0
G1 X-13.994S200
G1 X-2.5S0
G1 X0.005Y0.1S0
G1 X2.5S0
G1 X13.984S200
G1 X2.5S0
G1 X-0.006Y0.1S0
G1 X-2.5S0
G1 X-13.972S200
G1 X-2.5S0
G1 X0.005Y0.1S0
G1 X2.5S0
G1 X13.962S200
G1 X2.5S0
G1 X-0.005Y0.1S0
G1 X-2.5S0
G1 X-13.952S200
G1 X-2.5S0
G1 X0.006Y0.1S0
G1 X2.5S0
G1 X13.94S200
G1 X2.5S0
G1 X-0.005Y0.1S0
G1 X-2.5S0
G1 X-13.93S200
G1 X-2.5S0
G1 X0.015Y0.1S0
G1 X2.5S0
G1 X13.9S200
G1 X2.5S0
G1 X-0.017Y0.1S0
G1 X-2.5S0
G1 X-13.866S200
G1 X-2.5S0
G1 X0.016Y0.1S0
G1 X2.5S0
G1 X13.834S200
G1 X2.5S0
G1 X-0.016Y0.1S0
G1 X-2.5S0
G1 X-13.802S200
G1 X-2.5S0
G1 X0.017Y0.1S0
G1 X2.5S0
G1 X13.768S200
G1 X2.5S0
G1 X-0.016Y0.1S0
G1 X-2.5S0
G1 X-13.736S200
G1 X-2.5S0
G1 X0.021Y0.1S0
G1 X2.5S0
G1 X13.694S200
G1 X2.5S0
G1 X-0.028Y0.1S0
G1 X-2.5S0
G1 X-13.638S200
G1 X-2.5S0
G1 X0.028Y0.1S0
G1 X2.5S0
G1 X13.582S200
G1 X2.5S0
G1 X-0.027Y0.1S0
G1 X-2.5S0
G1 X-13.528S200
G1 X-2.5S0
G1 X0.028Y0.1S0
G1 X2.5S0
G1 X13.472S200
G1 X2.5S0
G1 X-0.028Y0.1S0
G1 X-2.5S0
G1 X-13.416S200
G1 X-2.5S0
G1 X0.029Y0.1S0
G1 X2.5S0
G1 X13.358S200
G1 X2.5S0
G1 X-0.04Y0.1S0
G1 X-2.5S0
G1 X-13.278S200
G1 X-2.5S0
G1 X0.039Y0.1S0
G1 X2.5S0
G1 X13.2S200
G1 X2.5S0
G1 X-0.04Y0.1S0
G1 X-2.5S0
G1 X-13.12S200
G1 X-2.5S0
G1 X0.039Y0.1S0
G1 X2.5S0
G1 X13.042S200
G1 X2.5S0
G1 X-0.04Y0.1S0
G1 X-2.5S0
G1 X-12.962S200
G1 X-2.5S0
G1 X0.041Y0.1S0
G1 X2.5S0
G1 X12.88S200
G1 X2.5S0
G1 X-0.052Y0.1S0
G1 X-2.5S0
G1 X-12.776S200
G1 X-2.5S0
G1 X0.052Y0.1S0
G1 X2.5S0
G1 X12.672S200
G1 X2.5S0
G1 X-0.052Y0.1S0
G1 X-2.5S0
G1 X-12.568S200
G1 X-2.5S0
G1 X0.052Y0.1S0
G1 X2.5S0
G1 X12.464S200
G1 X2.5S0
G1 X-0.052Y0.1S0
G1 X-2.5S0
G1 X-12.36S200
G1 X-2.5S0
G1 X0.059Y0.1S0
G1 X2.5S0
G1 X12.242S200
G1 X2.5S0
G1 X-0.065Y0.1S0
G1 X-2.5S0
G1 X-12.112S200
G1 X-2.5S0
G1 X0.066Y0.1S0
G1 X2.5S0
G1 X11.98S200
G1 X2.5S0
G1 X-0.065Y0.1S0
G1 X-2.5S0
G1 X-11.85S200
G1 X-2.5S0
G1 X0.065Y0.1S0
G1 X2.5S0
G1 X11.72S200
G1 X2.5S0
G1 X-0.068Y0.1S0
G1 X-2.5S0
G1 X-11.584S200
G1 X-2.5S0
G1 X0.081Y0.1S0
G1 X2.5S0
G1 X11.422S200
G1 X2.5S0
G1 X-0.08Y0.1S0
G1 X-2.5S0
G1 X-11.262S200
G1 X-2.5S0
G1 X0.081Y0.1S0
G1 X2.5S0
G1 X11.1S200
G1 X2.5S0
G1 X-0.08Y0.1S0
G1 X-2.5S0
G1 X-10.94S200
G1 X-2.5S0
G1 X0.084Y0.1S0
G1 X2.5S0
G1 X10.772S200
G1 X2.5S0
G1 X-0.097Y0.1S0
G1 X-2.5S0
G1 X-10.578S200
G1 X-2.5S0
G1 X0.098Y0.1S0
G1 X2.5S0
G1 X10.382S200
G1 X2.5S0
G1 X-0.098Y0.1S0
G1 X-2.5S0
G1 X-10.186S200
G1 X-2.5S0
G1 X0.098Y0.1S0
G1 X2.5S0
G1 X9.99S200
G1 X2.5S0
G1 X-0.109Y0.1S0
G1 X-2.5S0
G1 X-9.772S200
G1 X-2.5S0
G1 X0.118Y0.1S0
G1 X2.5S0
G1 X9.536S200
G1 X2.5S0
G1 X-0.119Y0.1S0
G1 X-2.5S0
G1 X-9.298S200
G1 X-2.5S0
G1 X0.118Y0.1S0
G1 X2.5S0
G1 X9.062S200
G1 X2.5S0
G1 X-0.128Y0.1S0
G1 X-2.5S0
G1 X-8.806S200
G1 X-2.5S0
G1 X0.144Y0.1S0
G1 X2.5S0
G1 X8.518S200
G1 X2.5S0
G1 X-0.144Y0.1S0
G1 X-2.5S0
G1 X-8.23S200
G1 X-2.5S0
G1 X0.144Y0.1S0
G1 X2.5S0
G1 X7.942S200
G1 X2.5S0
G1 X-0.164Y0.1S0
G1 X-2.5S0
G1 X-7.614S200
G1 X-2.5S0
G1 X0.177Y0.1S0
G1 X2.5S0
G1 X7.26S200
G1 X2.5S0
G1 X-0.177Y0.1S0
G1 X-2.5S0
G1 X-6.906S200
G1 X-2.5S0
G1 X0.194Y0.1S0
G1 X2.5S0
G1 X6.518S200
G1 X2.5S0
G1 X-0.223Y0.1S0
G1 X-2.5S0
G1 X-6.072S200
G1 X-2.5S0
G1 X0.224Y0.1S0
G1 X2.5S0
G1 X5.624S200
G1 X2.5S0
G1 X-0.266Y0.1S0
G1 X-2.5S0
G1 X-5.092S200
G1 X-2.5S0
G1 X0.294Y0.1S0
G1 X2.5S0
G1 X4.504S200
G1 X2.5S0
G1 X-0.347Y0.1S0
G1 X-2.5S0
G1 X-3.81S200
G1 X-2.5S0
G1 X0.419Y0.1S0
G1 X2.5S0
G1 X2.972S200
G1 X2.5S0
G1 X-0.654Y0.1S0
G1 X-2.5S0
G1 X-1.664S200
G1 X-2.5S0
G90
M9
G1 S0
M5
G90
; return to user-defined finish pos
G0 X0 Y0
M2
